X: 13564
T: Fly In The Porter, The
R: jig
M: 6/8
K: Dmixolydian
AFA d2A|dfa gfe|f2d efd|cAG EFG|
AFA d2A|dfa gfe|f2d cAG|Ad^c d3:|
~A3 GFG|A2D FED|~E3 cBc|GEG cAG|
~A3 GFG|GBd efg|fed cAG|Ad^c d3:|
f2D EFG|AdB cAG|f2d efg|age d3|
FAF ~G3|AdB cde|fed cAG|Ad^c d3:|

